examples/scientific/nightingale.svg

<svg height="900" viewBox="0 0 900 900" width="900" xmlns="http://www.w3.org/2000/svg">
<rect fill="#ffffff" height="852" shape-rendering="crispEdges" width="884" x="8" y="40"/>
<text fill="#111111" font-family="sans-serif" font-size="16" x="253.2" y="32">
Mortality by month — Nightingale's rose
</text>
<path d="M450,466 L450,239.24286 C489.8042,239.24286,528.9071,249.72046,563.37854,269.62256 z" fill="#c25757" stroke="#000000" stroke-width="0"/>
<path d="M450,466 L450,239.24286 C489.8042,239.24286,528.9071,249.72046,563.37854,269.62256 z" fill="none" stroke="#ffffff" stroke-width="0.8"/>
<path d="M450,466 L578.71783,243.05417 C617.853,265.64886,650.35114,298.147,672.9458,337.28217 z" fill="#c25757" stroke="#000000" stroke-width="0"/>
<path d="M450,466 L578.71783,243.05417 C617.853,265.64886,650.35114,298.147,672.9458,337.28217 z" fill="none" stroke="#ffffff" stroke-width="0.8"/>
<path d="M450,466 L698.4,322.58618 C723.57434,366.1895,736.82764,415.65125,736.82764,466 z" fill="#c25757" stroke="#000000" stroke-width="0"/>
<path d="M450,466 L698.4,322.58618 C723.57434,366.1895,736.82764,415.65125,736.82764,466 z" fill="none" stroke="#ffffff" stroke-width="0.8"/>
<path d="M450,466 L767.09985,466 C767.09985,521.66266,752.4479,576.34467,724.6165,624.5499 z" fill="#c25757" stroke="#000000" stroke-width="0"/>
<path d="M450,466 L767.09985,466 C767.09985,521.66266,752.4479,576.34467,724.6165,624.5499 z" fill="none" stroke="#ffffff" stroke-width="0.8"/>
<path d="M450,466 L748.5397,638.36194 C718.2838,690.7666,674.7666,734.2838,622.36194,764.5397 z" fill="#c25757" stroke="#000000" stroke-width="0"/>
<path d="M450,466 L748.5397,638.36194 C718.2838,690.7666,674.7666,734.2838,622.36194,764.5397 z" fill="none" stroke="#ffffff" stroke-width="0.8"/>
<path d="M450,466 L635.1464,786.683 C578.8548,819.183,515,836.29285,450,836.29285 z" fill="#c25757" stroke="#000000" stroke-width="0"/>
<path d="M450,466 L635.1464,786.683 C578.8548,819.183,515,836.29285,450,836.29285 z" fill="none" stroke="#ffffff" stroke-width="0.8"/>
<path d="M450,466 L450,795.47046 C392.16586,795.47046,335.3506,780.2469,285.26477,751.32983 z" fill="#c25757" stroke="#000000" stroke-width="0"/>
<path d="M450,466 L450,795.47046 C392.16586,795.47046,335.3506,780.2469,285.26477,751.32983 z" fill="none" stroke="#ffffff" stroke-width="0.8"/>
<path d="M450,466 L316.9176,696.50543 C276.45544,673.1446,242.8554,639.54456,219.49455,599.0824 z" fill="#c25757" stroke="#000000" stroke-width="0"/>
<path d="M450,466 L316.9176,696.50543 C276.45544,673.1446,242.8554,639.54456,219.49455,599.0824 z" fill="none" stroke="#ffffff" stroke-width="0.8"/>
<path d="M450,466 L260.28137,575.5341 C241.05411,542.2315,230.9318,504.4545,230.9318,466 z" fill="#c25757" stroke="#000000" stroke-width="0"/>
<path d="M450,466 L260.28137,575.5341 C241.05411,542.2315,230.9318,504.4545,230.9318,466 z" fill="none" stroke="#ffffff" stroke-width="0.8"/>
<path d="M450,466 L261.7931,466 C261.7931,432.9628,270.48944,400.5076,287.00806,371.89655 z" fill="#c25757" stroke="#000000" stroke-width="0"/>
<path d="M450,466 L261.7931,466 C261.7931,432.9628,270.48944,400.5076,287.00806,371.89655 z" fill="none" stroke="#ffffff" stroke-width="0.8"/>
<path d="M450,466 L306.58618,383.2 C321.1206,358.02563,342.02563,337.1206,367.2,322.58618 z" fill="#c25757" stroke="#000000" stroke-width="0"/>
<path d="M450,466 L306.58618,383.2 C321.1206,358.02563,342.02563,337.1206,367.2,322.58618 z" fill="none" stroke="#ffffff" stroke-width="0.8"/>
<path d="M450,466 L378.2931,341.8 C400.09476,329.21283,424.82562,322.58618,450,322.58618 z" fill="#c25757" stroke="#000000" stroke-width="0"/>
<path d="M450,466 L378.2931,341.8 C400.09476,329.21283,424.82562,322.58618,450,322.58618 z" fill="none" stroke="#ffffff" stroke-width="0.8"/>
<path d="M450,219.91075 C493.1977,219.91075,535.63434,231.28162,573.0446,252.88046 L563.37854,269.62256 C528.9071,249.72046,489.8042,239.24286,450,239.24286 z" fill="#2e4d77" stroke="#000000" stroke-width="0"/>
<path d="M450,219.91075 C493.1977,219.91075,535.63434,231.28162,573.0446,252.88046 L563.37854,269.62256 C528.9071,249.72046,489.8042,239.24286,450,239.24286 z" fill="none" stroke="#ffffff" stroke-width="0.8"/>
<path d="M588.3446,226.38017 C630.4066,250.66472,665.33527,285.59338,689.6198,327.65543 L672.9458,337.28217 C650.35114,298.147,617.853,265.64886,578.71783,243.05417 z" fill="#2e4d77" stroke="#000000" stroke-width="0"/>
<path d="M588.3446,226.38017 C630.4066,250.66472,665.33527,285.59338,689.6198,327.65543 L672.9458,337.28217 C650.35114,298.147,617.853,265.64886,578.71783,243.05417 z" fill="none" stroke="#ffffff" stroke-width="0.8"/>
<path d="M716.7008,312.0202 C743.73,358.83597,757.9596,411.9418,757.9596,466 L736.82764,466 C736.82764,415.65125,723.57434,366.1895,698.4,322.58618 z" fill="#2e4d77" stroke="#000000" stroke-width="0"/>
<path d="M716.7008,312.0202 C743.73,358.83597,757.9596,411.9418,757.9596,466 L736.82764,466 C736.82764,415.65125,723.57434,366.1895,698.4,322.58618 z" fill="none" stroke="#ffffff" stroke-width="0.8"/>
<path d="M789.7155,466 C789.7155,525.6325,774.01855,584.2145,744.2023,635.8578 L724.6165,624.5499 C752.4479,576.34467,767.09985,521.66266,767.09985,466 z" fill="#2e4d77" stroke="#000000" stroke-width="0"/>
<path d="M789.7155,466 C789.7155,525.6325,774.01855,584.2145,744.2023,635.8578 L724.6165,624.5499 C752.4479,576.34467,767.09985,521.66266,767.09985,466 z" fill="none" stroke="#ffffff" stroke-width="0.8"/>
<path d="M768.6725,649.9856 C736.3762,705.9243,689.9243,752.3762,633.9856,784.6725 L622.36194,764.5397 C674.7666,734.2838,718.2838,690.7666,748.5397,638.36194 z" fill="#2e4d77" stroke="#000000" stroke-width="0"/>
<path d="M768.6725,649.9856 C736.3762,705.9243,689.9243,752.3762,633.9856,784.6725 L622.36194,764.5397 C674.7666,734.2838,718.2838,690.7666,748.5397,638.36194 z" fill="none" stroke="#ffffff" stroke-width="0.8"/>
<path d="M647.1034,807.3931 C587.1764,841.99207,519.19775,860.20685,450,860.20685 L450,836.29285 C515,836.29285,578.8548,819.183,635.1464,786.683 z" fill="#2e4d77" stroke="#000000" stroke-width="0"/>
<path d="M647.1034,807.3931 C587.1764,841.99207,519.19775,860.20685,450,860.20685 L450,836.29285 C515,836.29285,578.8548,819.183,635.1464,786.683 z" fill="none" stroke="#ffffff" stroke-width="0.8"/>
<path d="M450,818.9132 C388.05078,818.9132,327.19296,802.60645,273.5434,771.63184 L285.26477,751.32983 C335.3506,780.2469,392.16586,795.47046,450,795.47046 z" fill="#2e4d77" stroke="#000000" stroke-width="0"/>
<path d="M450,818.9132 C388.05078,818.9132,327.19296,802.60645,273.5434,771.63184 L285.26477,751.32983 C335.3506,780.2469,392.16586,795.47046,450,795.47046 z" fill="none" stroke="#ffffff" stroke-width="0.8"/>
<path d="M305.5937,716.119 C261.68866,690.77045,225.22955,654.31134,199.88097,610.4063 L219.49455,599.0824 C242.8554,639.54456,276.45544,673.1446,316.9176,696.50543 z" fill="#2e4d77" stroke="#000000" stroke-width="0"/>
<path d="M305.5937,716.119 C261.68866,690.77045,225.22955,654.31134,199.88097,610.4063 L219.49455,599.0824 C242.8554,639.54456,276.45544,673.1446,316.9176,696.50543 z" fill="none" stroke="#ffffff" stroke-width="0.8"/>
<path d="M239.91795,587.29095 C218.62694,550.4138,207.41814,508.582,207.41814,466 L230.9318,466 C230.9318,504.4545,241.05411,542.2315,260.28137,575.5341 z" fill="#2e4d77" stroke="#000000" stroke-width="0"/>
<path d="M239.91795,587.29095 C218.62694,550.4138,207.41814,508.582,207.41814,466 L230.9318,466 C230.9318,504.4545,241.05411,542.2315,260.28137,575.5341 z" fill="none" stroke="#ffffff" stroke-width="0.8"/>
<path d="M237.5517,466 C237.5517,428.70752,247.36813,392.07208,266.01437,359.77585 L287.00806,371.89655 C270.48944,400.5076,261.7931,432.9628,261.7931,466 z" fill="#2e4d77" stroke="#000000" stroke-width="0"/>
<path d="M237.5517,466 C237.5517,428.70752,247.36813,392.07208,266.01437,359.77585 L287.00806,371.89655 C270.48944,400.5076,261.7931,432.9628,261.7931,466 z" fill="none" stroke="#ffffff" stroke-width="0.8"/>
<path d="M284.4,370.3908 C301.18292,341.32193,325.32193,317.18292,354.3908,300.4 L367.2,322.58618 C342.02563,337.1206,321.1206,358.02563,306.58618,383.2 z" fill="#2e4d77" stroke="#000000" stroke-width="0"/>
<path d="M284.4,370.3908 C301.18292,341.32193,325.32193,317.18292,354.3908,300.4 L367.2,322.58618 C342.02563,337.1206,321.1206,358.02563,306.58618,383.2 z" fill="none" stroke="#ffffff" stroke-width="0.8"/>
<path d="M364.6517,318.17242 C390.60086,303.19067,420.0365,295.3034,450,295.3034 L450,322.58618 C424.82562,322.58618,400.09476,329.21283,378.2931,341.8 z" fill="#2e4d77" stroke="#000000" stroke-width="0"/>
<path d="M364.6517,318.17242 C390.60086,303.19067,420.0365,295.3034,450,295.3034 L450,322.58618 C424.82562,322.58618,400.09476,329.21283,378.2931,341.8 z" fill="none" stroke="#ffffff" stroke-width="0.8"/>
<path d="M450,208.56433 C495.1894,208.56433,539.58264,220.45946,578.71783,243.05417 L573.0446,252.88046 C535.63434,231.28162,493.1977,219.91075,450,219.91075 z" fill="#c2a35f" stroke="#000000" stroke-width="0"/>
<path d="M450,208.56433 C495.1894,208.56433,539.58264,220.45946,578.71783,243.05417 L573.0446,252.88046 C535.63434,231.28162,493.1977,219.91075,450,219.91075 z" fill="none" stroke="#ffffff" stroke-width="0.8"/>
<path d="M593.9109,216.73901 C637.66534,242.00064,673.9994,278.33466,699.261,322.0891 L689.6198,327.65543 C665.33527,285.59338,630.4066,250.66472,588.3446,226.38017 z" fill="#c2a35f" stroke="#000000" stroke-width="0"/>
<path d="M593.9109,216.73901 C637.66534,242.00064,673.9994,278.33466,699.261,322.0891 L689.6198,327.65543 C665.33527,285.59338,630.4066,250.66472,588.3446,226.38017 z" fill="none" stroke="#ffffff" stroke-width="0.8"/>
<path d="M726.1725,306.55176 C754.1615,355.03015,768.8965,410.02197,768.8965,466 L757.9596,466 C757.9596,411.9418,743.73,358.83597,716.7008,312.0202 z" fill="#c2a35f" stroke="#000000" stroke-width="0"/>
<path d="M726.1725,306.55176 C754.1615,355.03015,768.8965,410.02197,768.8965,466 L757.9596,466 C757.9596,411.9418,743.73,358.83597,716.7008,312.0202 z" fill="none" stroke="#ffffff" stroke-width="0.8"/>
<path d="M801.29065,466 C801.29065,527.66437,785.05884,588.24243,754.2266,641.6453 L744.2023,635.8578 C774.01855,584.2145,789.7155,525.6325,789.7155,466 z" fill="#c2a35f" stroke="#000000" stroke-width="0"/>
<path d="M801.29065,466 C801.29065,527.66437,785.05884,588.24243,754.2266,641.6453 L744.2023,635.8578 C774.01855,584.2145,789.7155,525.6325,789.7155,466 z" fill="none" stroke="#ffffff" stroke-width="0.8"/>
<path d="M779.25366,656.09467 C745.8851,713.89075,697.89075,761.8851,640.09467,795.25366 L633.9856,784.6725 C689.9243,752.3762,736.3762,705.9243,768.6725,649.9856 z" fill="#c2a35f" stroke="#000000" stroke-width="0"/>
<path d="M779.25366,656.09467 C745.8851,713.89075,697.89075,761.8851,640.09467,795.25366 L633.9856,784.6725 C689.9243,752.3762,736.3762,705.9243,768.6725,649.9856 z" fill="none" stroke="#ffffff" stroke-width="0.8"/>
<path d="M653.16956,817.9 C591.3982,853.5637,521.3274,872.3391,450,872.3391 L450,860.20685 C519.19775,860.20685,587.1764,841.99207,647.1034,807.3931 z" fill="#c2a35f" stroke="#000000" stroke-width="0"/>
<path d="M653.16956,817.9 C591.3982,853.5637,521.3274,872.3391,450,872.3391 L450,860.20685 C519.19775,860.20685,587.1764,841.99207,647.1034,807.3931 z" fill="none" stroke="#ffffff" stroke-width="0.8"/>
<path d="M450,830.8528 C385.95496,830.8528,323.03824,813.9943,267.5736,781.9718 L273.5434,771.63184 C327.19296,802.60645,388.05078,818.9132,450,818.9132 z" fill="#c2a35f" stroke="#000000" stroke-width="0"/>
<path d="M450,830.8528 C385.95496,830.8528,323.03824,813.9943,267.5736,781.9718 L273.5434,771.63184 C327.19296,802.60645,388.05078,818.9132,450,818.9132 z" fill="none" stroke="#ffffff" stroke-width="0.8"/>
<path d="M299.30173,727.0171 C253.48366,700.56396,215.436,662.51636,188.98294,616.69824 L199.88097,610.4063 C225.22955,654.31134,261.68866,690.77045,305.5937,716.119 z" fill="#c2a35f" stroke="#000000" stroke-width="0"/>
<path d="M299.30173,727.0171 C253.48366,700.56396,215.436,662.51636,188.98294,616.69824 L199.88097,610.4063 C225.22955,654.31134,261.68866,690.77045,305.5937,716.119 z" fill="none" stroke="#ffffff" stroke-width="0.8"/>
<path d="M228.98448,593.6034 C206.5854,554.80707,194.79326,510.79816,194.79326,466 L207.41814,466 C207.41814,508.582,218.62694,550.4138,239.91795,587.29095 z" fill="#c2a35f" stroke="#000000" stroke-width="0"/>
<path d="M228.98448,593.6034 C206.5854,554.80707,194.79326,510.79816,194.79326,466 L207.41814,466 C207.41814,508.582,218.62694,550.4138,239.91795,587.29095 z" fill="none" stroke="#ffffff" stroke-width="0.8"/>
<path d="M224.50615,466 C224.50615,426.41757,234.92537,387.53247,254.7166,353.25308 L266.01437,359.77585 C247.36813,392.07208,237.5517,428.70752,237.5517,466 z" fill="#c2a35f" stroke="#000000" stroke-width="0"/>
<path d="M224.50615,466 C224.50615,426.41757,234.92537,387.53247,254.7166,353.25308 L266.01437,359.77585 C247.36813,392.07208,237.5517,428.70752,237.5517,466 z" fill="none" stroke="#ffffff" stroke-width="0.8"/>
<path d="M273.13913,363.88934 C291.0633,332.84375,316.84375,307.0633,347.88934,289.13913 L354.3908,300.4 C325.32193,317.18292,301.18292,341.32193,284.4,370.3908 z" fill="#c2a35f" stroke="#000000" stroke-width="0"/>
<path d="M273.13913,363.88934 C291.0633,332.84375,316.84375,307.0633,347.88934,289.13913 L354.3908,300.4 C325.32193,317.18292,301.18292,341.32193,284.4,370.3908 z" fill="none" stroke="#ffffff" stroke-width="0.8"/>
<path d="M358.20148,307.0003 C386.11176,290.88626,417.77197,282.40295,450,282.40295 L450,295.3034 C420.0365,295.3034,390.60086,303.19067,364.6517,318.17242 z" fill="#c2a35f" stroke="#000000" stroke-width="0"/>
<path d="M358.20148,307.0003 C386.11176,290.88626,417.77197,282.40295,450,282.40295 L450,295.3034 C420.0365,295.3034,390.60086,303.19067,364.6517,318.17242 z" fill="none" stroke="#ffffff" stroke-width="0.8"/>
<rect fill="#ffffff" height="76" shape-rendering="crispEdges" width="163" x="713" y="56"/>
<path d="M713,56 L876,56 L876,132 L713,132 z" fill="none" shape-rendering="crispEdges" stroke="#444444" stroke-width="1"/>
<rect fill="#c25757" height="12" shape-rendering="crispEdges" width="12" x="721" y="64"/>
<text fill="#333333" font-family="sans-serif" font-size="12" x="739" y="74">
preventable disease
</text>
<rect fill="#2e4d77" height="12" shape-rendering="crispEdges" width="12" x="721" y="84"/>
<text fill="#333333" font-family="sans-serif" font-size="12" x="739" y="94">
wounds in battle
</text>
<rect fill="#c2a35f" height="12" shape-rendering="crispEdges" width="12" x="721" y="104"/>
<text fill="#333333" font-family="sans-serif" font-size="12" x="739" y="114">
other causes
</text>
</svg>

<svg xmlns="http://www.w3.org/2000/svg" width="900" height="900" viewBox="0 0 900 900"><path fill="#fff" d="M8 40h884v852H8z" shape-rendering="crispEdges"/><text x="253.2" y="32" fill="#111" font-family="sans-serif" font-size="16">
Mortality by month — Nightingale&apos;s rose
</text><path fill="#c25757" d="M450 466V239.243a226.76 226.76 0 0 1 113.379 30.38z"/><path fill="none" stroke="#fff" stroke-width=".8" d="M450 466V239.243a226.76 226.76 0 0 1 113.379 30.38z"/><path fill="#c25757" d="m450 466 128.718-222.946a257.44 257.44 0 0 1 94.228 94.228z"/><path fill="none" stroke="#fff" stroke-width=".8" d="m450 466 128.718-222.946a257.44 257.44 0 0 1 94.228 94.228z"/><path fill="#c25757" d="m450 466 248.4-143.414A286.8 286.8 0 0 1 736.828 466z"/><path fill="none" stroke="#fff" stroke-width=".8" d="m450 466 248.4-143.414A286.8 286.8 0 0 1 736.828 466z"/><path fill="#c25757" d="M450 466h317.1a317.1 317.1 0 0 1-42.484 158.55z"/><path fill="none" stroke="#fff" stroke-width=".8" d="M450 466h317.1a317.1 317.1 0 0 1-42.484 158.55z"/><path fill="#c25757" d="m450 466 298.54 172.362A344.7 344.7 0 0 1 622.362 764.54z"/><path fill="none" stroke="#fff" stroke-width=".8" d="m450 466 298.54 172.362A344.7 344.7 0 0 1 622.362 764.54z"/><path fill="#c25757" d="m450 466 185.146 320.683A370.3 370.3 0 0 1 450 836.293z"/><path fill="none" stroke="#fff" stroke-width=".8" d="m450 466 185.146 320.683A370.3 370.3 0 0 1 450 836.293z"/><path fill="#c25757" d="M450 466v329.47a329.47 329.47 0 0 1-164.735-44.14z"/><path fill="none" stroke="#fff" stroke-width=".8" d="M450 466v329.47a329.47 329.47 0 0 1-164.735-44.14z"/><path fill="#c25757" d="M450 466 316.918 696.505a266.17 266.17 0 0 1-97.423-97.423z"/><path fill="none" stroke="#fff" stroke-width=".8" d="M450 466 316.918 696.505a266.17 266.17 0 0 1-97.423-97.423z"/><path fill="#c25757" d="M450 466 260.281 575.534A219.07 219.07 0 0 1 230.931 466z"/><path fill="none" stroke="#fff" stroke-width=".8" d="M450 466 260.281 575.534A219.07 219.07 0 0 1 230.931 466z"/><path fill="#c25757" d="M450 466H261.793c0-33.037 8.696-65.492 25.215-94.103z"/><path fill="none" stroke="#fff" stroke-width=".8" d="M450 466H261.793c0-33.037 8.696-65.492 25.215-94.103z"/><path fill="#c25757" d="m450 466-143.414-82.8a165.6 165.6 0 0 1 60.614-60.614z"/><path fill="none" stroke="#fff" stroke-width=".8" d="m450 466-143.414-82.8a165.6 165.6 0 0 1 60.614-60.614z"/><path fill="#c25757" d="m450 466-71.707-124.2A143.4 143.4 0 0 1 450 322.586z"/><path fill="none" stroke="#fff" stroke-width=".8" d="m450 466-71.707-124.2A143.4 143.4 0 0 1 450 322.586z"/><path fill="#2e4d77" d="M450 219.91a246.1 246.1 0 0 1 123.045 32.97l-9.666 16.743A226.76 226.76 0 0 0 450 239.243z"/><path fill="none" stroke="#fff" stroke-width=".8" d="M450 219.91a246.1 246.1 0 0 1 123.045 32.97l-9.666 16.743A226.76 226.76 0 0 0 450 239.243z"/><path fill="#2e4d77" d="M588.345 226.38A276.7 276.7 0 0 1 689.62 327.655l-16.674 9.627a257.44 257.44 0 0 0-94.228-94.228z"/><path fill="none" stroke="#fff" stroke-width=".8" d="M588.345 226.38A276.7 276.7 0 0 1 689.62 327.655l-16.674 9.627a257.44 257.44 0 0 0-94.228-94.228z"/><path fill="#2e4d77" d="M716.7 312.02A307.96 307.96 0 0 1 757.96 466h-21.132c0-50.349-13.254-99.81-38.428-143.414z"/><path fill="none" stroke="#fff" stroke-width=".8" d="M716.7 312.02A307.96 307.96 0 0 1 757.96 466h-21.132c0-50.349-13.254-99.81-38.428-143.414z"/><path fill="#2e4d77" d="M789.716 466a339.7 339.7 0 0 1-45.514 169.858l-19.586-11.308A317.1 317.1 0 0 0 767.1 466z"/><path fill="none" stroke="#fff" stroke-width=".8" d="M789.716 466a339.7 339.7 0 0 1-45.514 169.858l-19.586-11.308A317.1 317.1 0 0 0 767.1 466z"/><path fill="#2e4d77" d="M768.673 649.986a368 368 0 0 1-134.687 134.687l-11.624-20.133A344.7 344.7 0 0 0 748.54 638.362z"/><path fill="none" stroke="#fff" stroke-width=".8" d="M768.673 649.986a368 368 0 0 1-134.687 134.687l-11.624-20.133A344.7 344.7 0 0 0 748.54 638.362z"/><path fill="#2e4d77" d="M647.103 807.393A394.2 394.2 0 0 1 450 860.207v-23.914c65 0 128.855-17.11 185.146-49.61z"/><path fill="none" stroke="#fff" stroke-width=".8" d="M647.103 807.393A394.2 394.2 0 0 1 450 860.207v-23.914c65 0 128.855-17.11 185.146-49.61z"/><path fill="#2e4d77" d="M450 818.913a352.9 352.9 0 0 1-176.457-47.281l11.722-20.302A329.47 329.47 0 0 0 450 795.47z"/><path fill="none" stroke="#fff" stroke-width=".8" d="M450 818.913a352.9 352.9 0 0 1-176.457-47.281l11.722-20.302A329.47 329.47 0 0 0 450 795.47z"/><path fill="#2e4d77" d="M305.594 716.119A288.8 288.8 0 0 1 199.88 610.406l19.614-11.324a266.17 266.17 0 0 0 97.423 97.423z"/><path fill="none" stroke="#fff" stroke-width=".8" d="M305.594 716.119A288.8 288.8 0 0 1 199.88 610.406l19.614-11.324a266.17 266.17 0 0 0 97.423 97.423z"/><path fill="#2e4d77" d="M239.918 587.29a242.6 242.6 0 0 1-32.5-121.29h23.514a219.07 219.07 0 0 0 29.35 109.534z"/><path fill="none" stroke="#fff" stroke-width=".8" d="M239.918 587.29a242.6 242.6 0 0 1-32.5-121.29h23.514a219.07 219.07 0 0 0 29.35 109.534z"/><path fill="#2e4d77" d="M237.552 466a212.45 212.45 0 0 1 28.462-106.224l20.994 12.12A188.2 188.2 0 0 0 261.793 466z"/><path fill="none" stroke="#fff" stroke-width=".8" d="M237.552 466a212.45 212.45 0 0 1 28.462-106.224l20.994 12.12A188.2 188.2 0 0 0 261.793 466z"/><path fill="#2e4d77" d="M284.4 370.39a191.2 191.2 0 0 1 69.99-69.99l12.81 22.186a165.6 165.6 0 0 0-60.614 60.614z"/><path fill="none" stroke="#fff" stroke-width=".8" d="M284.4 370.39a191.2 191.2 0 0 1 69.99-69.99l12.81 22.186a165.6 165.6 0 0 0-60.614 60.614z"/><path fill="#2e4d77" d="M364.652 318.172A170.7 170.7 0 0 1 450 295.303v27.283a143.4 143.4 0 0 0-71.707 19.214z"/><path fill="none" stroke="#fff" stroke-width=".8" d="M364.652 318.172A170.7 170.7 0 0 1 450 295.303v27.283a143.4 143.4 0 0 0-71.707 19.214z"/><path fill="#c2a35f" d="M450 208.564c45.19 0 89.583 11.895 128.718 34.49l-5.673 9.826A246.1 246.1 0 0 0 450 219.91z"/><path fill="none" stroke="#fff" stroke-width=".8" d="M450 208.564c45.19 0 89.583 11.895 128.718 34.49l-5.673 9.826A246.1 246.1 0 0 0 450 219.91z"/><path fill="#c2a35f" d="M593.91 216.739a287.8 287.8 0 0 1 105.351 105.35l-9.641 5.566A276.7 276.7 0 0 0 588.345 226.38z"/><path fill="none" stroke="#fff" stroke-width=".8" d="M593.91 216.739a287.8 287.8 0 0 1 105.351 105.35l-9.641 5.566A276.7 276.7 0 0 0 588.345 226.38z"/><path fill="#c2a35f" d="M726.173 306.552A318.9 318.9 0 0 1 768.896 466H757.96a307.96 307.96 0 0 0-41.26-153.98z"/><path fill="none" stroke="#fff" stroke-width=".8" d="M726.173 306.552A318.9 318.9 0 0 1 768.896 466H757.96a307.96 307.96 0 0 0-41.26-153.98z"/><path fill="#c2a35f" d="M801.29 466a351.3 351.3 0 0 1-47.063 175.645l-10.025-5.787A339.7 339.7 0 0 0 789.716 466z"/><path fill="none" stroke="#fff" stroke-width=".8" d="M801.29 466a351.3 351.3 0 0 1-47.063 175.645l-10.025-5.787A339.7 339.7 0 0 0 789.716 466z"/><path fill="#c2a35f" d="M779.254 656.095a380.2 380.2 0 0 1-139.16 139.159l-6.108-10.582a368 368 0 0 0 134.687-134.686z"/><path fill="none" stroke="#fff" stroke-width=".8" d="M779.254 656.095a380.2 380.2 0 0 1-139.16 139.159l-6.108-10.582a368 368 0 0 0 134.687-134.686z"/><path fill="#c2a35f" d="M653.17 817.9A406.34 406.34 0 0 1 450 872.34v-12.133a394.2 394.2 0 0 0 197.103-52.814z"/><path fill="none" stroke="#fff" stroke-width=".8" d="M653.17 817.9A406.34 406.34 0 0 1 450 872.34v-12.133a394.2 394.2 0 0 0 197.103-52.814z"/><path fill="#c2a35f" d="M450 830.853a364.85 364.85 0 0 1-182.426-48.881l5.97-10.34A352.9 352.9 0 0 0 450 818.913z"/><path fill="none" stroke="#fff" stroke-width=".8" d="M450 830.853a364.85 364.85 0 0 1-182.426-48.881l5.97-10.34A352.9 352.9 0 0 0 450 818.913z"/><path fill="#c2a35f" d="M299.302 727.017a301.4 301.4 0 0 1-110.32-110.319l10.899-6.292A288.8 288.8 0 0 0 305.594 716.12z"/><path fill="none" stroke="#fff" stroke-width=".8" d="M299.302 727.017a301.4 301.4 0 0 1-110.32-110.319l10.899-6.292A288.8 288.8 0 0 0 305.594 716.12z"/><path fill="#c2a35f" d="M228.984 593.603A255.2 255.2 0 0 1 194.794 466h12.624a242.6 242.6 0 0 0 32.5 121.29z"/><path fill="none" stroke="#fff" stroke-width=".8" d="M228.984 593.603A255.2 255.2 0 0 1 194.794 466h12.624a242.6 242.6 0 0 0 32.5 121.29z"/><path fill="#c2a35f" d="M224.506 466c0-39.582 10.42-78.468 30.21-112.747l11.298 6.523A212.45 212.45 0 0 0 237.552 466z"/><path fill="none" stroke="#fff" stroke-width=".8" d="M224.506 466c0-39.582 10.42-78.468 30.21-112.747l11.298 6.523A212.45 212.45 0 0 0 237.552 466z"/><path fill="#c2a35f" d="M273.14 363.89a204.2 204.2 0 0 1 74.75-74.75l6.5 11.26a191.2 191.2 0 0 0-69.99 69.99z"/><path fill="none" stroke="#fff" stroke-width=".8" d="M273.14 363.89a204.2 204.2 0 0 1 74.75-74.75l6.5 11.26a191.2 191.2 0 0 0-69.99 69.99z"/><path fill="#c2a35f" d="M358.201 307A183.6 183.6 0 0 1 450 282.403v12.9a170.7 170.7 0 0 0-85.348 22.87z"/><path fill="none" stroke="#fff" stroke-width=".8" d="M358.201 307A183.6 183.6 0 0 1 450 282.403v12.9a170.7 170.7 0 0 0-85.348 22.87z"/><path fill="#fff" d="M713 56h163v76H713z" shape-rendering="crispEdges"/><path fill="none" stroke="#444" d="M713 56h163v76H713z" shape-rendering="crispEdges"/><path fill="#c25757" d="M721 64h12v12h-12z" shape-rendering="crispEdges"/><text x="739" y="74" fill="#333" font-family="sans-serif" font-size="12">
preventable disease
</text><path fill="#2e4d77" d="M721 84h12v12h-12z" shape-rendering="crispEdges"/><text x="739" y="94" fill="#333" font-family="sans-serif" font-size="12">
wounds in battle
</text><path fill="#c2a35f" d="M721 104h12v12h-12z" shape-rendering="crispEdges"/><text x="739" y="114" fill="#333" font-family="sans-serif" font-size="12">
other causes
</text></svg>
